!!!COM: Mendelssohn, Felix
!!!CDT: 1809/02/03-1847/11/04
!!!OPR: Sechs vierstimmige Lieder
!!!OTL: Neujahrslied
!!!OPS: Op. 88
!!!ONM: Nr. 1
!!!OMD: Assai sostenuto
**kern	**text	**text	**text	**dynam	**kern	**text	**text	**text	**dynam	**kern	**text	**text	**text	**dynam	**kern	**text	**text	**text	**dynam
*part4	*part4	*part4	*part4	*part4	*part3	*part3	*part3	*part3	*part3	*part2	*part2	*part2	*part2	*part2	*part1	*part1	*part1	*part1	*part1
*staff4	*staff4	*staff4	*staff4	*	*staff3	*staff3	*staff3	*staff3	*	*staff2	*staff2	*staff2	*staff2	*	*staff1	*staff1	*staff1	*staff1	*
*Ivox	*	*	*	*	*Ivox	*	*	*	*	*Ivox	*	*	*	*	*Ivox	*	*	*	*
*I"Bass	*	*	*	*	*I"Tenor	*	*	*	*	*I"Alt	*	*	*	*	*I"Sopran	*	*	*	*
*stria5	*	*	*	*	*stria5	*	*	*	*	*stria5	*	*	*	*	*stria5	*	*	*	*
*clefF4	*	*	*	*	*clefGv2	*	*	*	*	*clefG2	*	*	*	*	*clefG2	*	*	*	*
*k[b-e-a-]	*	*	*	*	*k[b-e-a-]	*	*	*	*	*k[b-e-a-]	*	*	*	*	*k[b-e-a-]	*	*	*	*
*E-:	*	*	*	*	*E-:	*	*	*	*	*E-:	*	*	*	*	*E-:	*	*	*	*
*M4/4	*	*	*	*	*M4/4	*	*	*	*	*M4/4	*	*	*	*	*M4/4	*	*	*	*
*met(c)	*	*	*	*	*met(c)	*	*	*	*	*met(c)	*	*	*	*	*met(c)	*	*	*	*
*MM92	*	*	*	*	*MM92	*	*	*	*	*MM92	*	*	*	*	*MM92	*	*	*	*
=1	=1	=1	=1	=1	=1	=1	=1	=1	=1	=1	=1	=1	=1	=1	=1	=1	=1	=1	=1
*	*v:1	*v:2	*v:3	*	*	*v:1	*v:2	*v:3	*	*	*v:1	*v:2	*v:3	*	*	*v:1	*v:2	*v:3	*
4E-	Mit	Und	War’s	p	4G	Mit	Und	War’s	p	4e-	Mit	Und	War’s	p	4b-	Mit	Und	War’s	p
4E-	der	wo	nicht	.	4A-	der	wo	nicht	.	4f	der	wo	nicht	.	4b-	der	wo	nicht	.
4.E-	Freu-	man-	so	.	4.B-	Freu-	man-	so	.	4.g	Freu-	man-	so	.	4.ee-	Freu-	man-	so	.
8E-	-de	-che	im	.	8B-	-de	-che	im	.	8g	-de	-che	im	.	8b-	-de	-che	im	.
=2	=2	=2	=2	=2	=2	=2	=2	=2	=2	=2	=2	=2	=2	=2	=2	=2	=2	=2	=2
4E-	zieht	Thrä-	al-	.	4B-	zieht	Thrä-	al-	.	4e-	zieht	Thrä-	al-	.	4g	zieht	Thrä-	al-	.
4E-	det	-ne	-ten	.	4c	det	-ne	-ten	.	4e-	det	-ne	-ten	.	4a-	der	-ne	-ten	.
2E-	Schmerz	fällt,	Jahr?	.	2d-X	Schmerz	fällt,	Jahr?	.	2g	Schmerz	fällt,	Jahr?	.	2b-	Schmerz	fällt,	Jahr?	.
=3	=3	=3	=3	=3	=3	=3	=3	=3	=3	=3	=3	=3	=3	=3	=3	=3	=3	=3	=3
4E-	trau-	blüht	Wird’s	.	4d-X	trau-	blüht	Wird’s	.	4g	trau-	blüht	Wird’s	.	4b-	trau-	blüht	Wird’s	.
4E-	-lich	auch	im	<	4d-	-lich	auch	im	<	4g	-lich	auch	im	<	4bn	-lich	auch	im	<
4A-	durch	man-	neu-	.	4c	durch	man-	neu-	.	4e-	durch	man-	neu-	.	4cc	durch	man-	neu-	.
4A-	die	-che	-en	[[	4c	die	-che	-en	[[	4a-	die	-che	-en	[[	4ff	die	-che	-en	[[
=4	=4	=4	=4	=4	=4	=4	=4	=4	=4	=4	=4	=4	=4	=4	=4	=4	=4	=4	=4
2B-	Zei-	Ro-	en-	.	2f	Zei-	Ro-	en-	.	2a-	Zei-	Ro-	en-	.	2ee-	Zei-	Ro-	en-	.
2B-	-ten,	-se,	-den?	.	2f	-ten,-	-se,	-den?	.	2a-	-ten,-	-se,	-den?	.	2dd	-ten,	-se,	-den?	.
=5	=5	=5	=5	=5	=5	=5	=5	=5	=5	=5	=5	=5	=5	=5	=5	=5	=5	=5	=5
*c:	*	*	*	*	*c:	*	*	*	*	*c:	*	*	*	*	*c:	*	*	*	*
2r	.	.	.	.	4.e-	-schwe-	schon	Son-	sf	4.g	-schwe-	schon	Son-	sf	4.ee-	schwe-	schon	Son-	sf
.	.	.	.	.	8e-	-re	ge-	-nen	.	8g	-re	ge-	-nen	.	8cc	-re	ge-	-nen	.
4.G	.	schon	Son-	sf	4d	Stür-	-mischt,	wal-	.	4f	Stür-	-mischt,	wal-	.	4bn	Stür-	-mischt,	wal-	.
.	.	.	.	.	4Bn	-me,	noch	-len	.	4f	-me,	noch	-len	.	4g	-me,	noch	-len	.
8G	-re	ge-	-nen	.	.	.	.	.	.	.	.	.	.	.	.	.	.	.	.
=6	=6	=6	=6	=6	=6	=6	=6	=6	=6	=6	=6	=6	=6	=6	=6	=6	=6	=6	=6
2G	Stür-	-mischt,	wal-	.	4c	mil-	eh’	auf	.	4e-	mil-	eh’	auf	.	4.ee-	mil-	eh’	auf	.
.	.	.	.	.	4e-	-de	wir’s	und	.	4g	-de	wir’s	und	.	.	.	.	.	.
.	.	.	.	.	.	.	.	.	.	.	.	.	.	.	8cc	-de	wir’s	und	.
2G	-me	noch	-len	.	4d	We-	bit-	nie-	.	4f	We-	bit-	nie-	.	4cc	We-	bit-	nie-	.
.	.	.	.	.	4d	-ste,	-ten	-der,	.	4f	-ste,	-ten	-der,	.	4bn	-ste,	-ten	-der,	.
=7	=7	=7	=7	=7	=7	=7	=7	=7	=7	=7	=7	=7	=7	=7	=7	=7	=7	=7	=7
*f:	*	*	*	*	*f:	*	*	*	*	*f:	*	*	*	*	*f:	*	*	*	*
2r	.	.	.	.	4.c	ban-	ist	Wol-	p	4.en	ban-	ist	Wol-	p	4.cc	ban-	ist	Wol-	p
.	.	.	.	.	8c	-ge	für	-ken	.	8f	-ge	für	-ken	.	8a-	-ge	für	-ken	.
4.C	mil-	eh’	auf	p	4c	Sor-	Thro-	geh’n	.	4e	Sor-	Thro-	geh’n	.	4g	Sor-	Thro-	geh’n	.
.	.	.	.	.	4c	-gen,	-nen	und	.	4c	-gen,	-nen	und	.	4c	-gen,	-nen	und	.
8C	-de	wir’s	und	.	.	.	.	.	.	.	.	.	.	.	.	.	.	.	.
=8	=8	=8	=8	=8	=8	=8	=8	=8	=8	=8	=8	=8	=8	=8	=8	=8	=8	=8	=8
4C	We-	bit-	nie-	.	4.G	fro-	und	kom-	.	4.en	fro-	und	kom-	.	4.cc	fro-	und	kom-	.
4C	-ste	-ten,	-der,	.	.	.	.	.	.	.	.	.	.	.	.	.	.	.	.
.	.	.	.	.	8c	-he	für	-men	.	8f	-he	für	-men	.	8a-	-he	für	-men	.
4c	ban-	ist	Wol-	.	4c	Fe-	Hüt-	wie-	.	4f	Fe-	Hüt-	wie-	.	4a-	Fe-	Hüt-	wie-	.
4B-	-ge	für	-ken	.	4c	-ste	-ten	-der,	.	4e	-ste	-ten	-der,	.	4g	-ste	-ten	-der,	.
=9	=9	=9	=9	=9	=9	=9	=9	=9	=9	=9	=9	=9	=9	=9	=9	=9	=9	=9	=9
4A-	Sor-	Thro-	geh’n	.	4c	wan-	Schmerz	und	.	4f	wan-	Schmerz	und	.	4f	wan-	Schmerz	und	.
4G	-gen,	-nen	und	<	4B-	-deln	und	kein	<	4en	-deln	und	kein	<	4g	-deln	und	kein	<
4F	fro-	und	kom-	.	4A-	sich	Lust	Wunsch-	.	4f	sich	Lust	Wunsch-	.	4a-	sich	Lust	Wunsch-	.
*B-:	*	*	*	*	*B-:	*	*	*	*	*B-:	*	*	*	*	*B-:	*	*	*	*
4E-	-he	für	-men	.	4c	zur	im	-wird’s	.	4f	zur	im	-wird’s	.	4an	zur	im	-wird’s	.
=10	=10	=10	=10	=10	=10	=10	=10	=10	=10	=10	=10	=10	=10	=10	=10	=10	=10	=10	=10
*E-:	*	*	*	*	*E-:	*	*	*	*	*E-:	*	*	*	*	*E-:	*	*	*	*
2D	Fe-	Hüt-	wie-	.	2f	Sei-	Loo-	wen-	.	2a-	Sei-	Loo-	wen-	.	(4.b-	Sei-	Loo-	wen-	.
.	.	.	.	.	.	.	.	.	.	.	.	.	.	.	8cc)	.	.	.	.
2E-	-ste,	-ten	-der,	.	(4g	-ten,	-se,	-den,	.	2g	-ten,	-se,	-den,	.	2b-	-ten,	-se,	-den,	.
.	.	.	.	.	4e-)	.	.	.	.	.	.	.	.	.	.	.	.	.	.
=11	=11	=11	=11	=11	=11	=11	=11	=11	=11	=11	=11	=11	=11	=11	=11	=11	=11	=11	=11
4AA-	wan-	Schmerz	und	.	4e-	wan-	Schmerz	und	.	4f	wan-	Schmerz	und	.	4bn	wan-	Schmerz	und	.
4AA-	-deln	und	kein	>	4e-	-deln	und	kein	>	4f	-deln	und	kein	>	4cc	-deln	und	kein	>
4AAn	sich	Lust	Wunsch	.	4d	sich	Lust	Wunsch	.	4f#X	sich	Lust	Wunsch	.	4dd	sich	Lust	Wunsch	.
4AA	zur	im	wird’s	.	4c	zur	im	wird’s	.	4f#	zur	im	wird’s	.	4ee-	zur	im	wird’s	.
=12	=12	=12	=12	=12	=12	=12	=12	=12	=12	=12	=12	=12	=12	=12	=12	=12	=12	=12	=12
1BB-	Sei-	Loo-	wen-	.	[2B-	Sei-	Loo-	wen-	p	(2g	Sei-	Loo-	wen-	p	2e-	Sei-	Loo-	wen-	p
.	.	.	.	.	(4.B-]	.	.	.	.	2d)	.	.	.	.	(4.g	.	.	.	.
.	.	.	.	.	8A-)	.	.	.	.	.	.	.	.	.	8f)	.	.	.	.
=13	=13	=13	=13	=13	=13	=13	=13	=13	=13	=13	=13	=13	=13	=13	=13	=13	=13	=13	=13
2.E-	-ten.	-se.	-den.	p	2.G	-ten.	-se.	-den.	.	2.e-	-ten.	-se.	-den.	.	2.e-	-ten.	-se.	-den.	.
4r	.	.	.	.	4r	.	.	.	.	4r	.	.	.	.	4r	.	.	.	.
=:|!14	=:|!14	=:|!14	=:|!14	=:|!14	=:|!14	=:|!14	=:|!14	=:|!14	=:|!14	=:|!14	=:|!14	=:|!14	=:|!14	=:|!14	=:|!14	=:|!14	=:|!14	=:|!14	=:|!14
*A-:	*	*	*	*	*A-:	*	*	*	*	*A-:	*	*	*	*	*A-:	*	*	*	*
*	*v:4	*	*	*	*	*v:4	*	*	*	*	*v:4	*	*	*	*	*v:4	*	*	*
4GG	Ge-	.	.	pp	4B-	Ge-	.	.	pp	4d-X	Ge-	.	.	pp	4e-	Ge-	.	.	pp
4GG	-be	.	.	.	4B-	-be	.	.	.	4d-	-be	.	.	.	4e-	-be	.	.	.
4.AA-	denn,	.	.	.	4.A-	denn,	.	.	.	4.c	denn,	.	.	.	4.e-	denn,	.	.	.
8AA-	der	.	.	.	8A-	der	.	.	.	8c	der	.	.	.	8e-	der	.	.	.
=15	=15	=15	=15	=15	=15	=15	=15	=15	=15	=15	=15	=15	=15	=15	=15	=15	=15	=15	=15
4BB-	ü-	.	.	.	4A-	ü-	.	.	.	4d-X	ü-	.	.	.	4e-	ü-	.	.	.
4D-X	-ber	.	.	.	4G	-ber	.	.	.	4B-	-ber	.	.	.	4e-	-ber	.	.	.
2C	uns	.	.	.	2A-	uns	.	.	.	2e-	uns	.	.	.	2e-	uns	.	.	.
=16	=16	=16	=16	=16	=16	=16	=16	=16	=16	=16	=16	=16	=16	=16	=16	=16	=16	=16	=16
*E-:	*	*	*	*	*E-:	*	*	*	*	*E-:	*	*	*	*	*E-:	*	*	*	*
2.C-X	wägt	.	.	<	2.An	wägt	.	.	<	2.e-	wägt	.	.	<	2.f	wägt	.	.	<
4BB-	mit	.	.	[[	4B-	mit	.	.	[[	4e-	mit	.	.	[[	4f	mit	.	.	[[
=17	=17	=17	=17	=17	=17	=17	=17	=17	=17	=17	=17	=17	=17	=17	=17	=17	=17	=17	=17
4AAn	rech-	.	.	>	4c	rech-	.	.	>	4e-	rech-	.	.	>	4f	rech-	.	.	>
4AA	-ter	.	.	.	4c	-ter	.	.	.	4e-	-ter	.	.	.	4f	-ter	.	.	.
[2BB-	Wa-	.	.	]	[2B-	Wa-	.	.	]	2e-	Wa-	.	.	]	[2f	Wa-	.	.	]
=18	=18	=18	=18	=18	=18	=18	=18	=18	=18	=18	=18	=18	=18	=18	=18	=18	=18	=18	=18
4BB-]	.	.	.	.	4B-]	.	.	.	.	4d	.	.	.	.	4f]	.	.	.	.
4AA-	-ge,	.	.	p	4B-	-ge,	.	.	p	4d	-ge,	.	.	p	4f	-ge,	.	.	p
*c:	*	*	*	*	*c:	*	*	*	*	*c:	*	*	*	*	*c:	*	*	*	*
4GG	je-	.	.	.	4Bn	je-	.	.	.	4f	je-	.	.	.	4g	je-	.	.	.
4GG	-dem	.	.	.	4B	-dem	.	.	.	4f	-dem	.	.	.	4g	-dem	.	.	.
=19	=19	=19	=19	=19	=19	=19	=19	=19	=19	=19	=19	=19	=19	=19	=19	=19	=19	=19	=19
4.C	Sinn	.	.	<	4.c	Sinn	.	.	<	4.e-	Sinn	.	.	<	4.g	Sinn	.	.	<
8C	für	.	.	.	8c	für	.	.	.	8e-	für	.	.	.	8g	für	.	.	.
4E-	sei-	.	.	.	4c	sei-	.	.	.	4g	sei-	.	.	.	4cc	sei-	.	.	.
4C	-ne	.	.	.	4e-	-ne	.	.	.	4g	-ne	.	.	.	4cc	-ne	.	.	.
=20	=20	=20	=20	=20	=20	=20	=20	=20	=20	=20	=20	=20	=20	=20	=20	=20	=20	=20	=20
4G	Freu-	.	.	.	4e-	Freu-	.	.	.	4g	Freu-	.	.	.	4cc	Freu-	.	.	.
4F	-den,	.	.	.	4d	-den,	.	.	.	4g	-den,	.	.	.	4bn	-den,	.	.	.
*f:	*	*	*	*	*f:	*	*	*	*	*f:	*	*	*	*	*f:	*	*	*	*
4En	je-	.	.	.	4c	je-	.	.	.	4g	je-	.	.	.	4cc	je-	.	.	.
4E	-dem	.	.	.	4c	-dem	.	.	.	4b-	-dem	.	.	.	4cc	-dem	.	.	.
=21	=21	=21	=21	=21	=21	=21	=21	=21	=21	=21	=21	=21	=21	=21	=21	=21	=21	=21	=21
4.F	Muth	.	.	f	4.c	Muth	.	.	f	4.a-	Muth	.	.	f	4.cc	Muth	.	.	f
8F	für	.	.	.	8c	für	.	.	.	8a-	für	.	.	.	8cc	für	.	.	.
4A-	sei-	.	.	.	4Bn	sei-	.	.	.	4f	sei-	.	.	.	4ff	sei-	.	.	.
4F	-ne	.	.	.	4B	-ne	.	.	.	4a-	-ne	.	.	.	4ff	-ne	.	.	.
=22	=22	=22	=22	=22	=22	=22	=22	=22	=22	=22	=22	=22	=22	=22	=22	=22	=22	=22	=22
2C	Lei-	.	.	sf	2Bn	Lei-	.	.	sf	2a-	Lei-	.	.	sf	2ff	Lei-	.	.	sf
(4c	-den,	.	.	>	2c	-den,	.	.	>	2g	-den,	.	.	>	2een	-den,	.	.	>
4B-)	.	.	.	]]	.	.	.	.	]]	.	.	.	.	]]	.	.	.	.	]]
=23	=23	=23	=23	=23	=23	=23	=23	=23	=23	=23	=23	=23	=23	=23	=23	=23	=23	=23	=23
4A-	in	.	.	p	4c	in	.	.	p	4f	in	.	.	p	4f	in	.	.	p
4G	die	.	.	.	4B-X	die	.	.	.	4en	die	.	.	.	4g	die	.	.	.
4F	neu-	.	.	.	4A-	neu-	.	.	.	4f	neu-	.	.	.	4a-	neu-	.	.	.
*B-:	*	*	*	*	*B-:	*	*	*	*	*B-:	*	*	*	*	*B-:	*	*	*	*
4E-	-en	.	.	.	4c	-en	.	.	.	4f	-en	.	.	.	4an	-en	.	.	.
=24	=24	=24	=24	=24	=24	=24	=24	=24	=24	=24	=24	=24	=24	=24	=24	=24	=24	=24	=24
*E-:	*	*	*	*	*E-:	*	*	*	*	*E-:	*	*	*	*	*E-:	*	*	*	*
2D	Ta-	.	.	.	2f	Ta-	.	.	.	2a-X	Ta-	.	.	.	(4.b-	Ta-	.	.	.
.	.	.	.	.	.	.	.	.	.	.	.	.	.	.	8cc)	.	.	.	.
2E-	-ge	.	.	.	(4g	-ge	.	.	.	2g	-ge	.	.	.	2b-	-ge	.	.	.
.	.	.	.	.	4e-)	.	.	.	.	.	.	.	.	.	.	.	.	.	.
=25	=25	=25	=25	=25	=25	=25	=25	=25	=25	=25	=25	=25	=25	=25	=25	=25	=25	=25	=25
4AA-	in	.	.	.	4e-	in	.	.	.	4f	in	.	.	.	4bn	in	.	.	.
4AA-	die	.	.	>	4e-	die	.	.	>	4f	die	.	.	>	4cc	die	.	.	>
4AAn	neu-	.	.	.	4d	neu-	.	.	.	4f#X	neu-	.	.	.	4dd	neu-	.	.	.
4AA	-en	.	.	.	4c	-en	.	.	.	4f#	-en	.	.	.	4ee-	-en	.	.	.
=26	=26	=26	=26	=26	=26	=26	=26	=26	=26	=26	=26	=26	=26	=26	=26	=26	=26	=26	=26
1BB-	Ta-	.	.	pp	[2B-	Ta-	.	.	pp	(2g	Ta-	.	.	pp	(2e-	Ta-	.	.	pp
.	.	.	.	.	(4.B-]	.	.	.	.	2d)	.	.	.	.	4.g	.	.	.	.
.	.	.	.	.	8A-)	.	.	.	.	.	.	.	.	.	8f)	.	.	.	.
=27	=27	=27	=27	=27	=27	=27	=27	=27	=27	=27	=27	=27	=27	=27	=27	=27	=27	=27	=27
2.EE- 2.E-	-ge.	.	.	.	2.G	-ge.	.	.	.	2.e-	-ge.	.	.	.	2.e-	-ge.	.	.	.
4r;	.	.	.	.	4r;	.	.	.	.	4r;	.	.	.	.	4r;	.	.	.	.
==	==	==	==	==	==	==	==	==	==	==	==	==	==	==	==	==	==	==	==
*-	*-	*-	*-	*-	*-	*-	*-	*-	*-	*-	*-	*-	*-	*-	*-	*-	*-	*-	*-
!!!system-decoration: ([s1,s2,s3,s4])
!!!RDF**kern: i = editorial accidental
!!!AGN: Choral
!!!YOR: https://mdz-nbn-resolving.de/details:bsb00026635
!!!YOO: München, Bayerische Staatsbibliothek
!!!URL-scan: https://www.digitale-sammlungen.de/de/view/bsb00026635?page=1
!!!EED: Wolfgang Drescher
!!!END: 2024/11/15
!!!ENC: Wolfgang Drescher
!!!EEV: 2024/12/17
!!!title: @{OPS} @{ONM}. @{OTL}